X:1
T:My Heart Is Yearning Ever
T:My Heart Is Yearning Ever
T:Oskar Ahnfelt (1813-1882)
T:Hans Adolf Brorson (1694-1764)
T:Public Domain Courtesy of the Cyber Hymnal™
T:Public Domain Courtesy of the Cyber Hymnal™
C:Oskar Ahnfelt (1813-1882)
Z:Public Domain
Z:Courtesy of the Cyber Hymnal™
%%score ( 1 2 ) ( 3 4 )
L:1/8
Q:1/4=115
M:4/4
K:F
V:1 treble 
V:2 treble 
V:3 bass 
V:4 bass 
V:1
 C2 | [CA]3 [CE] [CF]3 [FA] | [Fd]4 [^Fc]2 [GB]2 | [FA]3 C [EG]2 C2 | [CF]6 A2 | %5
w: 1.~My|heart is yearn- ing|ev- er To|reach a place of|rest. Je-|
w: 2.~With-|in its ra- diant|por- tals None|ev- er sheds a|tear; God’s|
w: 3.~Their|bless- èd Lord and|Sav- ior Doth|rule and gov- ern|them In|
w: 4.~Be-|hold the goal in|glo- ry, Now|shin- ing from a-|far. O|
w: 5.~And|ev- en I shall|con- quer In|Je- sus’ name and|might; Tho’|
 [Dd]3 [Dc] [DB]2 [DG]2 | [Cc]3 [CB] [CA]2 [Fc]2 | [Fd]2 [GB]2 | [FA]3 [EG] x | [DF]4 [EG]2 [Fc]2 | %10
w: ru- sa- lem, my|hap- py home, In|thee my|heart shall|ne- ver By|
w: ci- ty bright gives|all de- light, No|grief nor|wail or|mor- tals Is|
w: peace and joy, with-|out al- loy, For|sin can|en- ter|nev- er The|
w: ci- ty of the|God of love, Where|no more|earth- ly|wor- ry My|
w: weak and faint, still|as a saint I’ll|in the|ha- ven|an- chor, Sweet|
 [G=B]2 [FA]2 F3 [=B,D] | C6 C2 | [CA]3 [CE] [CF]3 [FA] | d4 E [Fc]2 [CB]2 | [CA]3 C [DG]2 C2 | %15
w: sin or grief be|pressed. My|heart is yearn- ing|ev- er To reach|* that ci- ty|
w: where the Lamb is|near; With-|in its ra- diant|por- tals None ev-|* er sheds a|
w: new Je- ru- sa-|lem; Their|bless- èd Lord and|Sav- ior Doth rule|* and gov- ern|
w: hap- pi- ness shall|mar! Be-|hold the goal in|glo- ry, Now shin-|* ing from a-|
w: ha- ven of de-|light. Yea,|e- ven I shall|con- quer In Je-|* sus’ name and|
 [A,F]6 |] %16
w: bright.|
w: tear.|
w: them.|
w: far.|
w: might.|
V:2
 C2 | x8 | x8 | x3 C x C2 x | x6 (F_E) | x8 | x8 | x4 | x5 | x8 | x4 (DC=B,) x | C6 C2 | x8 | %13
 D3 x6 | x3 C x (CB,) x | x6 |] %16
V:3
 [F,A,]2 | [F,C]3 [G,B,] A,3 [F,C] | [B,,B,]4 [A,,C]2 [G,,D]2 | [C,C]3 [C,A,] [C,B,]2 [C,B,]2 | %4
 [F,,A,]6 F,2 | [^F,A,]3 [F,A,] [G,B,]2 B,2 | [E,G,]3 [E,G,] [F,A,]2 [F,A,]2 | B,2 [G,D]2 | %8
 C3 C, [^C,B,] | [D,A,]4 [C,C]2 [A,,C]2 | [G,,D]2 [G,,C]2 (=B,A,G,)[G,,F,] | [C,E,]6 (CB,) | %12
 [F,A,]3 [G,B,] [A,C]3 [F,C] | B,4 [D,A,]2 [E,G,]2 x | F,3 [A,,F,] [B,,F,]2 [C,E,]2 | [F,,F,]6 |] %16
V:4
 x2 | x4 A,3 x | x8 | x8 | x6 F,2 | x6 (G,=F,) | x8 | B,2 x2 | ^C2 x3 | x8 | x4 G,,3 x | x6 C,2 | %12
 x8 | (B,,3 C,) x5 | F,3 x5 | x6 |] %16

